!!!SOCIAL_FUNCTION:	bird dance songs
!!!PDT:	1956
!!!OTL: No_107_Hinata_Dance_Song_(c).krn
!!!LANG: Non-Tone
!!!LING_GROUP: Muskogean
!!!REG: Florida
**kern
*staff1
=1-
*clefF4
*k[f#c#g#d#]
*M2/4
4r
8.r
16B\
=2
4F#\
4B\
=3
4.F#\
8B\
=4
8.A\L
16F#\Jk
8.C#/L
16E/Jk
=5||
*M3/4
12E\L
12E\
12C#\J
4BB/
8.BB/L
16F#/Jk
=6
12E\L
12E\
12C#\J
4BB/
8.BB/L
16A/Jk
=7||
*M2/4
8.A\L
16F#\Jk
8.C#/L
16E/Jk
=8
12E\L
12E\
12C#\J
4BB/
=9
2BB/
==
*-
